svg/fluentui-system-icons/ic_fluent_dumbbell_20_filled.svg

<svg width="20" height="20" viewBox="0 0 20 20" fill="none" xmlns="http://www.w3.org/2000/svg">
<path d="M14.3311 3.12624C13.5561 2.35115 12.2994 2.35115 11.5243 3.12624C11.4532 3.19736 11.3885 3.27269 11.3303 3.35145C10.5823 3.21873 9.78295 3.44088 9.20412 4.01971C8.26334 4.96049 8.26334 6.48579 9.20412 7.42657L10.2155 8.43797L9.14708 9.50641L10.513 10.8724L11.5815 9.80393L12.593 10.8154C13.5338 11.7562 15.0591 11.7562 15.9998 10.8154C16.5787 10.2366 16.8008 9.43735 16.6681 8.68931C16.7469 8.63111 16.8222 8.56642 16.8934 8.49529C17.6684 7.7202 17.6684 6.46354 16.8934 5.68845L16.2952 5.09025L16.819 4.56637C17.1962 4.18917 17.1962 3.57761 16.819 3.20041C16.4418 2.82322 15.8303 2.82322 15.4531 3.20041L14.9292 3.72429L14.3311 3.12624ZM14.6015 6.67243C14.7968 6.8677 14.7968 7.18428 14.6015 7.37954C14.4063 7.5748 14.0897 7.5748 13.8944 7.37954L12.6216 6.10672C12.4264 5.91146 12.4264 5.59488 12.6216 5.39962C12.8169 5.20435 13.1335 5.20435 13.3287 5.39962L14.6015 6.67243ZM4.02169 9.20205C4.96246 8.26127 6.48777 8.26127 7.42854 9.20205L10.8174 12.5909C11.7582 13.5317 11.7582 15.057 10.8174 15.9978C10.2386 16.5766 9.43929 16.7988 8.69124 16.666C8.63305 16.7448 8.56837 16.8201 8.49724 16.8913C7.72216 17.6663 6.46549 17.6663 5.6904 16.8913L5.09232 16.2932L4.55102 16.8345C4.17382 17.2117 3.56226 17.2117 3.18506 16.8345C2.80786 16.4573 2.80786 15.8457 3.18506 15.4685L3.72636 14.9272L3.12819 14.329C2.3531 13.554 2.3531 12.2973 3.12819 11.5222C3.19932 11.4511 3.27465 11.3864 3.35342 11.3282C3.22071 10.5802 3.44286 9.78087 4.02169 9.20205ZM6.96456 15.0164C7.15982 14.8212 7.15982 14.5046 6.96456 14.3093L5.69174 13.0365C5.49648 12.8413 5.1799 12.8413 4.98464 13.0365C4.78938 13.2318 4.78938 13.5484 4.98464 13.7436L6.25745 15.0164C6.45272 15.2117 6.7693 15.2117 6.96456 15.0164Z" fill="#212121"/>
</svg>

<svg xmlns="http://www.w3.org/2000/svg" width="20" height="20"><path d="M14.331 3.126a1.985 1.985 0 0 0-3 .225 2.409 2.409 0 0 0-2.126 4.075l1.01 1.012-1.068 1.068 1.366 1.366 1.069-1.068 1.011 1.011a2.409 2.409 0 0 0 4.075-2.126 1.985 1.985 0 0 0 .225-3l-.598-.599.524-.524A.966.966 0 0 0 15.453 3.2l-.524.524-.598-.598Zm.27 3.546a.5.5 0 1 1-.707.708l-1.272-1.273a.5.5 0 0 1 .707-.707L14.6 6.672Zm-10.58 2.53a2.412 2.412 0 0 1 3.408 0l3.388 3.389a2.409 2.409 0 0 1-2.126 4.075 1.985 1.985 0 0 1-3 .225l-.599-.598-.541.541a.966.966 0 1 1-1.366-1.365l.541-.542-.598-.598a1.985 1.985 0 0 1 .225-3 2.406 2.406 0 0 1 .669-2.127Zm2.944 5.814a.5.5 0 0 0 0-.707l-1.273-1.272a.5.5 0 0 0-.707.707l1.272 1.272a.5.5 0 0 0 .708 0Z"/></svg>
